X:2
T:Julian and Sandy are Bronze
C:Colin Cotter
M:C
K:G
dc |: B2 AB G2 Bc|edBd g2 dc|B2 AB G2 D2|c2 Bc A2 dc|
B2 AB G2 Bd|edBd g2 a2|b2 gf efge|[1 agfe D2 dc :| [2agfe d2 AB|
|:c2 Bc A2 Bd|d2 g2 d2 AB|c2 Bc A2 D2|dcBc A2 AB|c2 Bc A2 Bd|
edBd g2 A2|b2 gf efge|[1 agfe B2 AB :|[2 agfe d2 dc|]
